X:1278
T:London Lasses
R:Reel
N:Collected by Delaney
B:O'Neill's 1278
Z:Transcribed by Trish O'Neil
M:C|
L:1/8
K:G
G2BG dGBG|eaag efg2|G2BG dGBG|egdB AGEF|
G2BG dGBG|eaag efga|bgag egfa|gedB AGEF||
gfgde2dB|dGBG Bdd2|gabge3d3|egdB AGEF|
gfgde2dB|dB c3BAB dega|bgag egfa|gedB AGEF|]
